X:278
T:Maitre de la Maison
M:4/4
K:AMin
Ae ed e2c2|ee dc Bd cB|Ae ed e2c2|ee dc B4:|
Ac BB Ac BB|Ac BB Ac BG|A2e2d2cB||
M:2/4
A3G:|
% Written by ABC2Win  2.2.119 on 7/29/2006
